icons/op-3d-return-default-16.svg

<svg width="16" height="16" viewBox="0 0 16 16" fill="none" xmlns="http://www.w3.org/2000/svg">
<g clip-path="url(#clip0_248_6313)">
<path fill-rule="evenodd" clip-rule="evenodd" d="M8.12199 0.392201C8.66497 0.0772742 9.33503 0.0772741 9.87801 0.392201L15.128 3.4372C15.6678 3.75026 16 4.32703 16 4.95101V11.049C16 11.6729 15.6678 12.2497 15.128 12.5628L9.75172 15.681C9.08505 16.0677 8.25 15.5867 8.25 14.816V8.43202L3.5 5.67702V9.24998C3.5 9.66419 3.1642 9.99998 2.75 9.99998C2.3358 9.99998 2 9.66419 2 9.24998V4.95101C2 4.32703 2.3322 3.75026 2.872 3.4372L8.12199 0.392201ZM4.2448 4.37499L8.87457 1.68975C8.95214 1.64476 9.04786 1.64476 9.12543 1.68975L13.7551 4.37499L8.99999 7.13298L4.2448 4.37499ZM14.5 5.67702V11.049C14.5 11.1381 14.4525 11.2205 14.3754 11.2652L9.75 13.948V8.43202L14.5 5.67702Z" fill="#1F2328"/>
<path d="M2.13691 11.3189C2.32983 11.6199 2.2079 12.0009 1.86458 12.17C1.65761 12.2719 1.53578 12.3636 1.47239 12.4306C1.44608 12.4584 1.43402 12.4772 1.42874 12.4875C1.43874 12.5081 1.4737 12.5609 1.58736 12.6432C1.76878 12.7745 2.07424 12.9207 2.51456 13.0555C2.8809 13.1676 3.31397 13.2639 3.79795 13.3378L3.77418 13.317C3.49571 13.0729 3.49571 12.6772 3.77418 12.4331C4.05265 12.1891 4.50414 12.1891 4.78261 12.4331L5.52987 13.0881C5.82851 13.3499 5.9998 13.7277 5.99988 14.1248C5.99996 14.5221 5.82865 14.9001 5.52987 15.162L4.78261 15.8169C4.50414 16.061 4.05265 16.061 3.77418 15.8169C3.49571 15.5729 3.49571 15.1772 3.77418 14.9331L4.10552 14.6427C3.33553 14.555 2.6345 14.4162 2.0443 14.2355C1.51682 14.0741 1.0391 13.8675 0.67929 13.607C0.32415 13.35 0 12.975 0 12.4879C0 11.8107 0.610002 11.354 1.16595 11.0802C1.50928 10.9111 1.94399 11.018 2.13691 11.3189Z" fill="#1F2328"/>
</g>
<defs>
<clipPath id="clip0_248_6313">
<rect width="16" height="16" fill="white"/>
</clipPath>
</defs>
</svg>

<svg xmlns="http://www.w3.org/2000/svg" width="16" height="16" viewBox="0 0 16 16"><path d="M8.122.392a1.75 1.75 0 0 1 1.756 0l5.25 3.045c.54.313.872.89.872 1.514v6.098a1.75 1.75 0 0 1-.872 1.514l-5.376 3.118a1 1 0 0 1-1.502-.865V8.432L3.5 5.677V9.25a.75.75 0 0 1-1.5 0V4.951c0-.624.332-1.201.872-1.514ZM4.245 4.375 9 7.133l4.755-2.758-4.63-2.685a.248.248 0 0 0-.25 0ZM14.5 5.677 9.75 8.432v5.516l4.625-2.683a.249.249 0 0 0 .125-.216ZM2.137 11.319c.193.301.071.682-.272.851a1.423 1.423 0 0 0-.393.261.223.223 0 0 0-.043.057c.01.02.045.073.158.155.182.131.487.278.928.413.366.112.799.208 1.283.282l-.024-.021a.573.573 0 0 1 0-.884.787.787 0 0 1 1.009 0l.747.655a1.379 1.379 0 0 1 0 2.074l-.747.655a.787.787 0 0 1-1.009 0 .573.573 0 0 1 0-.884l.332-.29a11.774 11.774 0 0 1-2.062-.407c-.527-.162-1.005-.368-1.365-.629C.324 13.35 0 12.975 0 12.488c0-.677.61-1.134 1.166-1.408.343-.169.778-.062.971.239Z"/></svg>
